X: 2338
T: Bag Of Spuds, The
R: reel
M: 4/4
K: Adorian
|:A2eA (3cBA eA|ABcd edBA|G2dG BGdG|GABc dcBG|
A2eA (3cBA eA|ABcd edcB|ABcd efge|dBGA BAA2:|
|:a2ea ageg|agbg agef|gedB GABd|gfgb ageg|
a2ea ageg|agbg ageg|d2de gage|dBGA BAA2:|

